X:109
T:HNSCRVL1- A Certain Cure for Jealousy
S:Sing sheet issue
Q:1/4=100
L:1/8
M:6/8
K:D
A|dc B (AG) F|EF G F/E/D A|Bc d e E2|A2A (de) f|Bc d (ef) g|\
cB A (Bc) d|ec2d2B/ c/|dc B (AF) D|GA2D|]

